X:1
T:The Pilgrim’s Journey
T:The Pilgrim’s Journey
T:William Howard Doane
T:Frances Jane (Fanny) Crosby, 1868
T:Public Domain Courtesy of the Cyber Hymnal™
C:William Howard Doane
Z:Public Domain
Z:Courtesy of the Cyber Hymnal™
%%score ( 1 2 ) ( 3 4 )
L:1/8
Q:1/4=110
M:4/4
K:C
V:1 treble 
V:2 treble 
V:3 bass 
V:4 bass 
V:1
 ([CE][DF]) ([EG][FA]) [EG]2 [EG]2 | [Ge]2 [Ec]2 [EG]2 [CE]2 | [FA]2 [Fc]2 [Fc]2 (BA) | %3
w: 1.~Slow * to * an- ger,|full of kind- ness,|Rich in mer- cy, *|
w: 2.~Thou * wilt * ne- ver,|ne- ver leave me,|If I give my- *|
w: 3.~May * Thy * ev- er|gra- cious spir- it,|Lead me in the *|
w: 4.~O! * how * sweet to|rest con- fid- ing,|On Thy Word that *|
 [EG]2 [CE]2 [B,D]4 | ([CE][DF]) ([EG][FA]) [EG]2 [EG]2 | [Ge]2 [Gc]2 [FA]2 !fermata![Fc]2 | %6
w: Lord, Thou art,|Wash * me * in Thy|heal- ing fount- ain,|
w: self to Thee,|Teach, * O * teach me|how to praise Thee,|
w: way of truth,|May * I * learn the|voice of wis- dom,|
w: can- not fail,|Strong * in * Thee, what-|e’er my tri- als,|
 [Ac]2 [FA]2 [EG]3 [Ec] | [Ec]2 [Fd]2 [Ec]4 ||"^Refrain" [Ec]3 [Fd] [Ec]2 [EG]2 | %9
w: Take a- way my|sin- ful heart.||
w: Tell me what my|life should be.|I would go the|
w: In the ear- ly|days of youth.||
w: Through Thy grace I|must pre- vail.||
 [FA]2 [Fc]2 [EG]2 [CE]2 | [Ec]3 [Fd] [Ge]2 [Ed]2 | [DB]2 [CA]2 (z2 (3F{a}ED) | %12
w: |||
w: pil- grim’s jour- ney,|On- ward to the|prom- ised * * *|
w: |||
w: |||
 [CE][DF] ([EG][FA]) [EG]2 [EG]2 | [Ge]2 [Gc]2 [FA]2 !fermata![Fc]2 | [Fc]2 [FA]2 G3 [Ec] | %15
w: |||
w: * * land; * I would|reach the gold- en|ci- ty, There to|
w: |||
w: |||
 [Ec]2 [Fd]2 [Ec]4 |] %16
w: |
w: join the an-|
w: |
w: |
V:2
 x8 | x8 | x6 F2 | x8 | x8 | x8 | x8 | x8 || x8 | x8 | x8 | x4 [B,G]4 | x8 | x8 | x4 G3 x | x8 |] %16
V:3
 [C,G,]2 [C,C]2 [C,C]2 [C,C]2 | [C,C]2 [C,G,]2 [C,C]2 [C,G,]2 | [F,C]2 [F,A,]2 [F,A,]2 [F,C]2 | %3
 [C,C]2 [C,G,]2 [G,,G,]4 | [C,G,]2 [C,C]2 [C,C]2 [C,C]2 | [C,C]2 [E,C]2 [F,C]2 !fermata![F,A,]2 | %6
 [F,C]2 [F,C]2 [G,C]3 G, | [G,,G,]2 (B,G,) [C,C]4 || [C,G,]3 [C,G,] [C,G,]2 [C,C]2 | %9
 [F,C]2 [F,A,]2 [C,C]2 [C,G,]2 | [C,G,]3 [C,G,] [C,C]2 [C,A,]2 | [D,G,]2 [D,^F,]2 [G,,G,]4 | %12
 [C,G,]2 [C,C]2 [C,C]2 [C,C]2 | [C,C]2 [E,C]2 [F,C]2 [F,A,]2 | [F,A,]2 [F,C]2 [E,C]3 [C,G,] | %15
 G,2 [G,,G,]2 [C,G,]4 |] %16
V:4
 x8 | x8 | x8 | x8 | x8 | x8 | x7 G, | x2 G,,2 x4 || x8 | x8 | x8 | x8 | x8 | x8 | x8 | G,2 x6 |] %16

